X:162
T:See The Conquering Hero Comes. RHu.158
S:R.Hughes MS,1823,Whitchurch,Shrops.
A:Whitchurch, Shropshire
Z:Tony Weatherall 2006
M:C
L:1/4
Q:1/4=100
R:Air
K:G
d2 B>c|d2G2|A/B/c/d/ cB|{B}A4|\
B/c/d/e/ d2|g2 d2|cB/A/A>G|G4:|!
;B/A/B/c/ BB|A/c/B/A/GG|cBAG|F4|\
e/d/e/f/ ef|g2e2|fe/d/ c>d|d4|!
d2B>c|d2G2|A/B/c/d/ cB|{B}A4B/c/d/e/ d2|\
g2d2|cB/A/A>G|G4|]

